X:1
T:Near the Cross
T:Near the Cross
T:William Howard Doane
T:Frances Jane (Fanny) Crosby, 1869
T:Public Domain Courtesy of the Cyber Hymnal™
C:William Howard Doane
Z:Public Domain
Z:Courtesy of the Cyber Hymnal™
%%score ( 1 2 ) ( 3 4 )
L:1/8
Q:1/4=185
M:6/4
K:F
V:1 treble 
V:2 treble 
V:3 bass 
V:4 bass 
V:1
 [FA]4 [FB]2 [FA]4 [EG]2 | [DF]4 D2 D6 | [A,C]4 [CF]2 [CF]4 [FA]2 | [FA]6 [EG]6 | %4
w: 1.~Je- sus, keep me|near the cross,|There a pre- cious|foun- tain|
w: 2.~Near the cross, a|trem- bling soul,|Love and mer- cy|found me;|
w: 3.~Near the cross! O|Lamb of God,|Bring its scenes be-|fore me;|
w: 4.~Near the cross I’ll|watch and wait|Hop- ing, trus- ting|e- ver,|
 [FA]4 [FB]2 [FA]4 [EG]2 | [DF]4 D2 [B,D]6 | [A,C]4 [CF]2 [CF]4 [CE]2 | [EG]6 F6 || %8
w: Free to all, a|heal- ing stream|Flows from Cal- vary’s|moun- tain.|
w: There the bright and|morn- ing star|Sheds its beams a-|round me.|
w: Help me walk from|day to day,|With its sha- dows|o’er me.|
w: Till I reach the|gold- en strand,|Just be- yond the|riv- er.|
"^Refrain" [FA]4 [Fc]2 [Fc]6 | [FB]4 [Fd]2 [Fd]6 | [Fc]4 [Fd]2 [Fc]4 [FA]2 | [FA]6 [EG]6 | %12
w: ||||
w: In the cross,|in the cross,|Be my glo- ry|e- ver;|
w: ||||
w: ||||
 [CA]4 [DB]2 [CA]4 [^CG]2 | [DF]4 D2 [B,D]6 | [A,C]4 [CF]2 [CF]4 [CE]2 | [EG]6 F6 |] %16
w: ||||
w: Till my rap- tured|soul shall find|Rest be- yond the|riv- er.|
w: ||||
w: ||||
V:2
 x12 | x4 D2 D6 | x12 | x12 | x12 | x4 D2 x6 | x12 | x6 F6 || x12 | x12 | x12 | x12 | x12 | %13
 x4 D2 x6 | x12 | x6 F6 |] %16
V:3
 [F,C]4 [F,D]2 [F,C]4 [C,B,]2 | [D,A,]4 [B,,B,]2 [B,,B,]6 | [F,A,]4 [F,A,]2 [F,A,]4 [F,C]2 | %3
 [C,C]6 [C,C]6 | [F,C]4 [F,D]2 [F,C]4 [C,B,]2 | [D,A,]4 [B,,B,]2 [B,,F,]6 | %6
 [C,F,]4 [C,A,]2 [C,A,]4 [C,G,]2 | [C,B,]6 [F,A,]6 || [F,C]4 [F,A,]2 [F,A,]6 | [B,D]4 B,2 B,6 | %10
 [F,A,]4 [F,B,]2 [F,A,]4 [F,C]2 | [C,C]6 [C,C]6 | [F,A,]4 [F,G,]2 [F,A,]4 [E,A,]2 | %13
 [D,A,]4 [B,,B,]2 [B,,F,]6 | [C,F,]4 [C,A,]2 [C,A,]4 [C,G,]2 | [C,B,]6 [F,A,]6 |] %16
V:4
 x12 | x12 | x12 | x12 | x12 | x12 | x12 | x12 || x12 | x4 B,2 B,6 | x12 | x12 | x12 | x12 | x12 | %15
 x12 |] %16

